src/custom/assets/cow-swap/order-cross.svg

<svg fill="none" height="13" viewBox="0 0 13 13" width="13" xmlns="http://www.w3.org/2000/svg"><path d="m6.5 13c-3.58995 0-6.5-2.9101-6.5-6.5 0-3.58995 2.91005-6.5 6.5-6.5 3.5899 0 6.5 2.91005 6.5 6.5 0 3.5899-2.9101 6.5-6.5 6.5zm0-7.4191-1.8382-1.83885-.91975.91975 1.83885 1.8382-1.83885 1.8382.91975.91975 1.8382-1.83885 1.8382 1.83885.91975-.91975-1.83885-1.8382 1.83885-1.8382-.91975-.91975z" fill="#ed673a"/></svg>

<svg width="13" height="13" viewBox="0 0 13 13" fill="none" xmlns="http://www.w3.org/2000/svg">
<path d="M6.5 13C2.91005 13 0 10.0899 0 6.5C0 2.91005 2.91005 0 6.5 0C10.0899 0 13 2.91005 13 6.5C13 10.0899 10.0899 13 6.5 13ZM6.5 5.5809L4.6618 3.74205L3.74205 4.6618L5.5809 6.5L3.74205 8.3382L4.6618 9.25795L6.5 7.4191L8.3382 9.25795L9.25795 8.3382L7.4191 6.5L9.25795 4.6618L8.3382 3.74205L6.5 5.5809Z" fill="#ED673A"/>
</svg>
